!!!OTL: 672. Die Thraene. / Andere Volksmelodie.
!!!COM: Volksmelodie
!!!ODT: 1892
!!!ARE: Europa, Mitteleuropa, Deutschland, Hochwald, Buchweiler
!!!SCT: B0672A
!!!TXL: @@DE
!!!YEM: Copyright 1995, estate of Helmut Schaffrath.
**kern	**text
*ICvox	*
*Ivox	*
*clefG2	*
*M4/4	*
*met(c)	*
*k[f#]	*
*G:	*
!LO:TX:a:t=Mäßig bewegt	!
{8d	Thut
8b	man
8a	ins
=1	=1
4g	Le-
4d	-ben
8g	kaum
8g	den
8b	er-
8b	-ſten
=2	=2
4a	Schritt,
4r	.
8r}	.
{8d	bringt
8d	man
8d	als
=3	=3
4cc	Kind
4cc	ſchon
8cc	ei-
8cc	-ne
8dd	Thrä-
8cc	-ne
=4	=4
4b	mit.
4r	.
8r}	.
{8dd	Die
8dd	Freuden-
8cc	.
=5	=5
4.b	-thrä-
8a	-ne
8g	bringt
8g	als
8g	er-
8f#	-ſten
=6	=6
2e	Gruß
8r}	.
{8cc	dem
8b	Kind
8a	die
=7	=7
4dd	Mutter
4b	.
8dd	mit
8cc	dem
8a	er-
8cc	-ſten
=8	=8
2b	Kuß,
8r}	.
{8gg	dem
8b	Kind
16ccL	die
16eeJ	.
=9	=9
4ee	Mut-
4dd	-ter
!LO:TX:a:t=Gehend.	!
8g	mit
8a	dem
8b	er-
8a	-ſten
=10	=10
4g	Kuß.
4r	.
8r}	.
==	==
!!!AGN: Moral - Lied, Lebenslauf, Klage
!!!GTL: Didaktische Lieder: Betrachtungen, Vergleiche und Moralisationen
!!!ONB: ESAC (Essen Associative Code) Database: BOEHME
!!!AMT: simple quadruple
!!!AIN: vox
!!!EED: Helmut Schaffrath
!!!EEV: 1.0
!!Aus Buchweiler (in Hochwald). 1892.
!!!URL-scan: https://archive.org/details/BoehmeVtLieder1895/page/n523/mode/2up
!!!ENC: Anna Maria Matuszewska
!!!EEV: 2024/16/07
*-	*-
